build/images/g13.svg

<svg width="138" height="138" viewBox="0 0 138 138" fill="none" xmlns="http://www.w3.org/2000/svg">
<circle cx="69" cy="69" r="69" fill="#76BD5E"/>
<path fill-rule="evenodd" clip-rule="evenodd" d="M43.0744 34.695C51.5691 32.995 62.7412 32.7719 70.3806 40.4006C70.6271 40.6478 70.8225 40.941 70.9556 41.2637C71.0887 41.5864 71.1569 41.9322 71.1562 42.2812V100.719C71.1572 101.245 71.0019 101.759 70.7101 102.197C70.4183 102.635 70.0031 102.976 69.5172 103.177C69.0312 103.379 68.4964 103.431 67.9805 103.328C67.4646 103.226 66.9909 102.972 66.6194 102.599C62.1409 98.1156 55.3834 96.9734 48.185 97.7119C41.045 98.4556 34.0538 100.99 29.8462 103.093C29.4413 103.296 28.9912 103.392 28.5386 103.372C28.0861 103.352 27.6462 103.217 27.2608 102.979C26.8754 102.741 26.5572 102.408 26.3365 102.013C26.1159 101.617 26 101.172 26 100.719V42.2812C26 41.7884 26.1372 41.3052 26.3961 40.8858C26.6551 40.4664 27.0256 40.1274 27.4662 39.9066L28.6562 42.2812L27.4662 39.9066L27.4769 39.9012L27.4981 39.8906L27.5672 39.8587C27.9523 39.6669 28.342 39.4845 28.7359 39.3116C33.3339 37.2525 38.1439 35.7043 43.0797 34.695H43.0744ZM31.3125 43.9812V96.6175C35.8069 94.7953 41.64 93.0475 47.6431 92.4312C53.7153 91.8044 60.3241 92.3091 65.8438 95.4062V43.4394C60.1966 38.5041 51.8666 38.3606 44.1156 39.9119C39.7161 40.812 35.4244 42.1761 31.3125 43.9812Z" fill="white"/>
<path fill-rule="evenodd" clip-rule="evenodd" d="M93.9256 34.695C85.4363 32.995 74.2588 32.7719 66.6194 40.4006C66.3729 40.6478 66.1775 40.941 66.0444 41.2637C65.9113 41.5864 65.8431 41.9322 65.8438 42.2812V100.719C65.8428 101.245 65.9981 101.759 66.2899 102.197C66.5817 102.635 66.9969 102.976 67.4829 103.177C67.9688 103.379 68.5036 103.431 69.0195 103.328C69.5354 103.226 70.0091 102.972 70.3806 102.599C74.8591 98.1156 81.6166 96.9734 88.815 97.7119C95.955 98.4556 102.946 100.99 107.154 103.093C107.559 103.296 108.009 103.392 108.461 103.372C108.914 103.352 109.354 103.217 109.739 102.979C110.125 102.741 110.443 102.408 110.663 102.013C110.884 101.617 111 101.172 111 100.719V42.2812C111 41.7884 110.863 41.3052 110.604 40.8858C110.345 40.4664 109.974 40.1274 109.534 39.9066L108.344 42.2812L109.534 39.9066L109.523 39.9012L109.502 39.8906L109.433 39.8587L109.183 39.7366C107.789 39.0858 106.374 38.4834 104.938 37.9303C101.364 36.5472 97.6802 35.465 93.9256 34.695ZM105.688 43.9812V96.6175C101.193 94.7953 95.36 93.0475 89.3569 92.4312C83.2847 91.8044 76.6759 92.3091 71.1563 95.4062V43.4394C76.8034 38.5041 85.1334 38.3606 92.8844 39.9119C97.2839 40.8119 101.576 42.176 105.688 43.9812Z" fill="white"/>
</svg>

<svg width="138" height="138" fill="none" xmlns="http://www.w3.org/2000/svg"><circle cx="69" cy="69" r="69" fill="#76BD5E"/><path fill-rule="evenodd" clip-rule="evenodd" d="M43.074 34.695c8.495-1.7 19.667-1.923 27.307 5.706a2.657 2.657 0 01.775 1.88v58.438a2.656 2.656 0 01-4.537 1.88c-4.478-4.483-11.236-5.626-18.434-4.887-7.14.744-14.131 3.278-18.339 5.381A2.656 2.656 0 0126 100.719V42.281a2.657 2.657 0 011.466-2.374l1.19 2.374-1.19-2.374.01-.006.022-.01.07-.032a24.81 24.81 0 011.168-.547 68.837 68.837 0 0114.344-4.617h-.006zm-11.761 9.286v52.637c4.494-1.823 10.327-3.57 16.33-4.187 6.072-.627 12.681-.122 18.2 2.975V43.44c-5.646-4.935-13.976-5.078-21.727-3.527a63.53 63.53 0 00-12.803 4.07z" fill="#fff"/><path fill-rule="evenodd" clip-rule="evenodd" d="M93.926 34.695c-8.49-1.7-19.667-1.923-27.307 5.706a2.657 2.657 0 00-.775 1.88v58.438a2.656 2.656 0 004.537 1.88c4.478-4.483 11.236-5.626 18.434-4.887 7.14.744 14.131 3.278 18.339 5.381a2.655 2.655 0 003.846-2.374V42.281a2.656 2.656 0 00-1.466-2.374l-1.19 2.374 1.19-2.374-.011-.006-.021-.01-.069-.032-.25-.122a68.826 68.826 0 00-15.257-5.042zm11.762 9.286v52.637c-4.495-1.823-10.328-3.57-16.331-4.187-6.072-.627-12.681-.122-18.2 2.975V43.44c5.646-4.935 13.976-5.078 21.727-3.527 4.4.9 8.692 2.264 12.804 4.07z" fill="#fff"/></svg>
